icons/lines/lamp-charge.svg

<svg xmlns="http://www.w3.org/2000/svg" width="24" height="24" viewBox="0 0 24 24" fill="none" stroke="currentColor" stroke-width="2" stroke-linecap="round" stroke-linejoin="round" >
  <path d="M12.0001 7.89001L10.9301 9.75001C10.6901 10.16 10.8901 10.5 11.3601 10.5H12.6301C13.1101 10.5 13.3001 10.84 13.0601 11.25L12.0001 13.11"/>
  <path d="M8.30035 18.04V16.88C6.00035 15.49 4.11035 12.78 4.11035 9.89999C4.11035 4.94999 8.66035 1.06999 13.8004 2.18999C16.0604 2.68999 18.0404 4.18999 19.0704 6.25999C21.1604 10.46 18.9604 14.92 15.7304 16.87V18.03C15.7304 18.32 15.8404 18.99 14.7704 18.99H9.26035C8.16035 19 8.30035 18.57 8.30035 18.04Z"/>
  <path d="M8.5 22C10.79 21.35 13.21 21.35 15.5 22"/>
  </svg>

<svg xmlns="http://www.w3.org/2000/svg" width="24" height="24" viewBox="0 0 24 24" fill="none" stroke="currentColor" stroke-width="2" stroke-linecap="round" stroke-linejoin="round">
  <path d="m12 7.89-1.07 1.86c-.24.41-.04.75.43.75h1.27c.48 0 .67.34.43.75L12 13.11" />
  <path d="M8.3 16.88C6 15.49 4.11 12.78 4.11 9.9c0-4.95 4.55-8.83 9.69-7.71 2.26.5 4.24 2 5.27 4.07 2.09 4.2-.11 8.66-3.34 10.61v1.16c0 .29.11.96-.96.96H9.26c-1.1.01-.96-.42-.96-.95z" />
  <path d="M8.5 22a12.8 12.8 0 0 1 7 0" />
</svg>
